X:2
T:Mike Flynn's
T:Cottage In the Grove
D:Mike & Mary Rafferty, The Old Fireside Music (1998)
Z:Nigel Gatherer
M:4/4
L:1/8
K:C major
c>ccd _BGFG|_B2 df gfdf|gc' c'2 _bgfd|c z d_B c_BGF|c>ccd _BGFG|\
_B2 df gfdf|
gc' c'2 _bgfd|ced_B c2 z2::c'>c'c'd' c'_bga|_bgfd _B2 (3def|\
g_bac' _bgfd|
c z d_B d_Bgf|c'>c'c'd' c'_bga|_bgfd _B2 (3def|g_bac' _bgfg|\
_b2 c'a _bgfd:|]
